X:1
T:Ride On, Ride On in Majesty!
T:Text: Henry H. Milman (1791-1868), alt. Tune: Thomas Williams' Psalmodia Evangelica, 1789
T:LM TRURO www.hymnary.org/text/ride_on_ride_on_in_majesty
T:Ride On, Ride On in Majesty!
T:This hymn is in the public domain.  You may freely use this score for personal and congregational worship.  If you reproduce the score, please credit Hymnary.org as the source. 
T:This hymn is in the public domain.  You may freely use this score for personal and congregational worship.  If you reproduce the score, please credit Hymnary.org as the source. 
Z:This hymn is in the public domain.  You may freely use this score for personal and congregational worship.  If you reproduce the score, please credit Hymnary.org as the source.
%%score ( 1 2 ) ( 3 4 )
L:1/8
M:2/2
K:C
V:1 treble nm="Piano" snm="Pno."
V:2 treble 
V:3 bass nm="Piano" snm="Pno."
V:4 bass 
V:1
 C4 E3 F | G6 G2 | [FA]4 [FB]4 | [Ec]6 G2 | [Gc]4 [EG]4 | (F2 E2) (D2 C2) | [B,F]4 [CE]4 | %7
w: 3~Ride on, ride|on in|ma- je-|sty! The|host of|an- * gels _|in the|
w: 1~Ride on, ride|on in|ma- je-|sty! Hear|all the|tribes _ ho- *|san- na|
w: 2~Ride on, ride|on in|ma- je-|sty! In|low- ly|pomp _ ride _|on to|
 [B,D]6 D2 | [DG]4 [DA]4 | [DB]6 [Dd]2 | (d2 c2) (([DB]2 [CA]2)) | [B,G]6 [DG]2 | [CG]4 [Ec]4 | %13
w: sky look|down with|sad and|won- * dering _|eyes to|see the\_ap-|
w: cry; O|Sa- vior|meek, pur-|sue _ your _|road with|palms and|
w: die. O|Christ, your|tri- umphs|now _ be- *|gin o'er|cap- tive|
 (D2 A2) (([EG]2 [DF]2)) | [CE]4 [B,D]4 | [CC]8 |] %16
w: proa- * ching _|sac- ri-|fice.|
w: scat- * tered _|gar- ments|strowed.|
w: death _ and _|con- quered|sin.|
V:2
 C4 E3 F | G6 G2 | x8 | x6 G2 | x8 | C4 (B,2 C2) | x8 | x6 D2 | x8 | x8 | E4 x4 | x8 | x8 | %13
 (D2 F2) x4 | x8 | x8 |] %16
V:3
 C,4 E,3 F, | G,6 [E,C]2 | [F,C]4 [D,G,]4 | [C,G,]6 G,2 | [E,G,]4 [C,C]4 | C4 G,4 | %6
 [D,G,]4 [C,G,]4 | [G,,G,]6 D,2 | [B,,G,]4 [D,^F,]4 | G,6 [B,,G,]2 | [C,G,]4 (G,2 ^F,2) | %11
 [G,,G,]6 [=F,B,]2 | [E,C]4 [C,G,]4 | [F,-A,]2 [D,F,]2 (([E,G,]2 [F,A,]2)) | G,4 (G,2 F,2) | %15
 [C,E,]8 |] %16
V:4
 C,4 E,3 F, | G,6 x2 | x8 | x6 G,2 | x8 | (A,2 G,2) (F,2 E,2) | x8 | x6 D,2 | x8 | G,6 x2 | %10
 x4 D,4 | x8 | x8 | x8 | G,4 G,,4 | x8 |] %16

